static/img/in-field/inputs-default-dark.svg

<svg width="469" height="56" viewBox="0 0 469 56" fill="none" xmlns="http://www.w3.org/2000/svg">
<rect x="1.5" y="1" width="466" height="54" rx="3" fill="black"/>
<path d="M23.4717 37H21.6348V22.9062H16.6934V21.2949H28.3916V22.9062H23.4717V37ZM35.2803 25.0117C36.2829 25.0117 37.1423 25.2337 37.8584 25.6777C38.5745 26.1217 39.1224 26.7448 39.502 27.5469C39.8815 28.3418 40.0713 29.2728 40.0713 30.3398V31.4463H31.9395C31.9609 32.8285 32.3047 33.8812 32.9707 34.6045C33.6367 35.3278 34.5749 35.6895 35.7852 35.6895C36.5299 35.6895 37.1888 35.6214 37.7617 35.4854C38.3346 35.3493 38.929 35.1488 39.5449 34.8838V36.4521C38.9505 36.7171 38.3597 36.9105 37.7725 37.0322C37.1924 37.154 36.5049 37.2148 35.71 37.2148C34.5785 37.2148 33.5902 36.9857 32.7451 36.5273C31.9072 36.0618 31.2555 35.3815 30.79 34.4863C30.3245 33.5911 30.0918 32.4954 30.0918 31.1992C30.0918 29.9316 30.3031 28.8359 30.7256 27.9121C31.1553 26.9811 31.7568 26.265 32.5303 25.7637C33.3109 25.2624 34.2275 25.0117 35.2803 25.0117ZM35.2588 26.4727C34.3063 26.4727 33.5472 26.7842 32.9814 27.4072C32.4157 28.0303 32.0791 28.9004 31.9717 30.0176H38.2021C38.195 29.3158 38.084 28.6999 37.8691 28.1699C37.6615 27.6328 37.3428 27.2174 36.9131 26.9238C36.4834 26.623 35.932 26.4727 35.2588 26.4727ZM46.1543 30.9736L42.083 25.2266H44.124L47.2285 29.7598L50.3223 25.2266H52.3418L48.2705 30.9736L52.5674 37H50.5264L47.2285 32.1982L43.9092 37H41.8896L46.1543 30.9736ZM58.9189 35.7539C59.2126 35.7539 59.5133 35.7288 59.8213 35.6787C60.1292 35.6286 60.3799 35.5677 60.5732 35.4961V36.8818C60.3656 36.9749 60.0755 37.0537 59.7031 37.1182C59.3379 37.1826 58.9798 37.2148 58.6289 37.2148C58.0059 37.2148 57.4401 37.1074 56.9316 36.8926C56.4232 36.6706 56.015 36.2982 55.707 35.7754C55.4062 35.2526 55.2559 34.5293 55.2559 33.6055V26.623H53.5801V25.7529L55.2666 25.0547L55.9756 22.498H57.0498V25.2266H60.498V26.623H57.0498V33.5518C57.0498 34.2894 57.2181 34.8408 57.5547 35.2061C57.8984 35.5713 58.3532 35.7539 58.9189 35.7539ZM69.4414 37V21.2949H71.2676V37H69.4414ZM81.1426 25.0117C82.5391 25.0117 83.5954 25.3555 84.3115 26.043C85.0277 26.7233 85.3857 27.819 85.3857 29.3301V37H83.624V29.4482C83.624 28.4671 83.3984 27.7331 82.9473 27.2461C82.5033 26.7591 81.8193 26.5156 80.8955 26.5156C79.5921 26.5156 78.6755 26.8844 78.1455 27.6221C77.6156 28.3597 77.3506 29.4303 77.3506 30.834V37H75.5674V25.2266H77.0068L77.2754 26.9238H77.3721C77.6227 26.5085 77.9414 26.1611 78.3281 25.8818C78.7148 25.5954 79.1481 25.3805 79.6279 25.2373C80.1077 25.0869 80.6126 25.0117 81.1426 25.0117ZM94.8418 25.0117C96.3099 25.0117 97.4808 25.5166 98.3545 26.5264C99.2282 27.5361 99.665 29.0544 99.665 31.0811C99.665 32.4202 99.4645 33.5446 99.0635 34.4541C98.6624 35.3636 98.0967 36.0511 97.3662 36.5166C96.6429 36.9821 95.7871 37.2148 94.7988 37.2148C94.1758 37.2148 93.6279 37.1325 93.1553 36.9678C92.6826 36.8031 92.278 36.5811 91.9414 36.3018C91.6048 36.0225 91.3255 35.7181 91.1035 35.3887H90.9746C90.9961 35.668 91.0212 36.0046 91.0498 36.3984C91.0856 36.7923 91.1035 37.1361 91.1035 37.4297V42.2637H89.3096V25.2266H90.7812L91.0176 26.9668H91.1035C91.3327 26.6087 91.612 26.2829 91.9414 25.9893C92.2708 25.6885 92.6719 25.4521 93.1445 25.2803C93.6243 25.1012 94.1901 25.0117 94.8418 25.0117ZM94.5303 26.5156C93.7139 26.5156 93.055 26.6732 92.5537 26.9883C92.0596 27.3034 91.6979 27.776 91.4688 28.4062C91.2396 29.0293 91.1178 29.8135 91.1035 30.7588V31.1025C91.1035 32.098 91.2109 32.9395 91.4258 33.627C91.6478 34.3145 92.0094 34.8372 92.5107 35.1953C93.0192 35.5534 93.6995 35.7324 94.5518 35.7324C95.2822 35.7324 95.891 35.5355 96.3779 35.1416C96.8649 34.7477 97.2266 34.1999 97.4629 33.498C97.7064 32.7891 97.8281 31.9762 97.8281 31.0596C97.8281 29.6702 97.556 28.5674 97.0117 27.751C96.4746 26.9274 95.6475 26.5156 94.5303 26.5156ZM112.752 25.2266V37H111.291L111.033 35.3457H110.937C110.693 35.7539 110.378 36.0977 109.991 36.377C109.604 36.6562 109.168 36.8639 108.681 37C108.201 37.1432 107.689 37.2148 107.145 37.2148C106.214 37.2148 105.433 37.0645 104.803 36.7637C104.173 36.4629 103.696 35.9974 103.374 35.3672C103.059 34.737 102.901 33.9277 102.901 32.9395V25.2266H104.706V32.8105C104.706 33.7917 104.928 34.5257 105.372 35.0127C105.816 35.4925 106.493 35.7324 107.402 35.7324C108.276 35.7324 108.971 35.5677 109.486 35.2383C110.009 34.9089 110.385 34.4255 110.614 33.7881C110.843 33.1436 110.958 32.3558 110.958 31.4248V25.2266H112.752ZM120.575 35.7539C120.869 35.7539 121.17 35.7288 121.478 35.6787C121.785 35.6286 122.036 35.5677 122.229 35.4961V36.8818C122.022 36.9749 121.732 37.0537 121.359 37.1182C120.994 37.1826 120.636 37.2148 120.285 37.2148C119.662 37.2148 119.096 37.1074 118.588 36.8926C118.079 36.6706 117.671 36.2982 117.363 35.7754C117.062 35.2526 116.912 34.5293 116.912 33.6055V26.623H115.236V25.7529L116.923 25.0547L117.632 22.498H118.706V25.2266H122.154V26.623H118.706V33.5518C118.706 34.2894 118.874 34.8408 119.211 35.2061C119.555 35.5713 120.009 35.7539 120.575 35.7539Z" fill="white"/>
<rect x="1.5" y="1" width="466" height="54" rx="3" stroke="#6A6E79" stroke-width="2"/>
</svg>

<svg width="469" height="56" fill="none" xmlns="http://www.w3.org/2000/svg"><rect x="1.5" y="1" width="466" height="54" rx="3" fill="#000"/><path d="M23.472 37h-1.837V22.906h-4.942v-1.611h11.699v1.611h-4.92V37zM35.28 25.012c1.003 0 1.862.222 2.578.666.717.444 1.264 1.067 1.644 1.869.38.795.57 1.726.57 2.793v1.106h-8.133c.022 1.382.366 2.435 1.032 3.159.666.723 1.604 1.085 2.814 1.085.745 0 1.404-.069 1.977-.205a10.9 10.9 0 001.783-.601v1.568a8.676 8.676 0 01-1.773.58c-.58.122-1.267.183-2.062.183-1.132 0-2.12-.23-2.965-.688-.838-.465-1.49-1.145-1.955-2.04-.465-.896-.698-1.992-.698-3.288 0-1.267.211-2.363.634-3.287.43-.93 1.03-1.647 1.804-2.148.78-.502 1.697-.752 2.75-.752zm-.021 1.46c-.953 0-1.712.312-2.278.935-.565.623-.902 1.493-1.01 2.61h6.231c-.007-.701-.118-1.317-.333-1.847-.208-.537-.526-.953-.956-1.246-.43-.301-.981-.451-1.654-.451zm10.895 4.502l-4.071-5.747h2.041l3.104 4.533 3.094-4.533h2.02l-4.072 5.747L52.567 37h-2.04l-3.299-4.802L43.91 37h-2.02l4.265-6.026zm12.765 4.78c.294 0 .594-.025.902-.075.308-.05.559-.111.752-.183v1.386c-.207.093-.498.172-.87.236a6.179 6.179 0 01-1.074.097 4.32 4.32 0 01-1.697-.322c-.509-.222-.917-.595-1.225-1.118-.3-.522-.451-1.246-.451-2.17v-6.982H53.58v-.87l1.687-.698.709-2.557h1.074v2.729h3.448v1.396H57.05v6.929c0 .737.168 1.289.505 1.654.343.365.798.548 1.364.548zM69.44 37V21.295h1.827V37H69.44zm11.702-11.988c1.396 0 2.452.343 3.168 1.031.717.68 1.075 1.776 1.075 3.287V37h-1.762v-7.552c0-.98-.226-1.715-.677-2.202-.444-.487-1.128-.73-2.052-.73-1.303 0-2.22.368-2.75 1.106-.53.738-.794 1.808-.794 3.212V37h-1.784V25.227h1.44l.268 1.697h.097c.25-.415.57-.763.956-1.042.387-.287.82-.502 1.3-.645.48-.15.985-.225 1.515-.225zm13.699 0c1.468 0 2.639.505 3.513 1.514.873 1.01 1.31 2.528 1.31 4.555 0 1.34-.2 2.464-.602 3.373-.4.91-.966 1.597-1.697 2.063-.723.465-1.579.698-2.567.698-.623 0-1.171-.083-1.644-.247a3.878 3.878 0 01-1.214-.666 4.347 4.347 0 01-.838-.913h-.128l.075 1.01c.036.393.053.737.053 1.03v4.835H89.31V25.227h1.471l.237 1.74h.085c.23-.358.509-.684.838-.978.33-.3.73-.537 1.203-.709.48-.179 1.046-.268 1.698-.268zm-.312 1.504c-.816 0-1.475.157-1.976.472-.494.315-.856.788-1.085 1.418-.23.623-.351 1.408-.365 2.353v.343c0 .996.107 1.838.322 2.525.222.688.583 1.21 1.085 1.568.508.358 1.189.537 2.04.537.731 0 1.34-.197 1.827-.59.487-.394.849-.942 1.085-1.644.243-.709.365-1.522.365-2.438 0-1.39-.272-2.493-.816-3.309-.537-.824-1.365-1.235-2.482-1.235zm18.222-1.29V37h-1.461l-.258-1.654h-.096a3.427 3.427 0 01-.946 1.031c-.387.28-.823.487-1.31.623-.48.143-.992.215-1.536.215-.931 0-1.712-.15-2.342-.451a3.036 3.036 0 01-1.429-1.397c-.315-.63-.473-1.44-.473-2.427v-7.713h1.805v7.583c0 .982.222 1.716.666 2.203.444.48 1.121.72 2.03.72.874 0 1.569-.165 2.084-.495.523-.33.899-.813 1.128-1.45.229-.644.344-1.432.344-2.363v-6.198h1.794zm7.823 10.528c.294 0 .595-.025.903-.075.307-.05.558-.111.751-.183v1.386c-.207.093-.497.172-.87.236a6.174 6.174 0 01-1.074.097 4.317 4.317 0 01-1.697-.322c-.509-.222-.917-.595-1.225-1.118-.301-.522-.451-1.246-.451-2.17v-6.982h-1.676v-.87l1.687-.698.709-2.557h1.074v2.729h3.448v1.396h-3.448v6.929c0 .737.168 1.289.505 1.654.344.365.798.548 1.364.548z" fill="#fff"/><rect x="1.5" y="1" width="466" height="54" rx="3" stroke="#6A6E79" stroke-width="2"/></svg>
